X:512
T: WALDVOEGELEIN WO SINGST DU
N: F0982
O: Europa, Mitteleuropa, Deutschland
R: Natur - Lied, Tier
M: 6/8
L: 1/8
K: E
 | EB,^A,B,2E | G3E3 |
FB,CD2F | A3F3 |
GFEDDE | F3G3 |
GFEDDE | F3G3 |
E3B,3 | G3E2
E | EB,B,GEE | F2BE2z

@@@ Tune index: 5943
